X: 20583
Q: "With spirit."
M: 6/8
L: 1/8
K: G
gec |\
ded cdc | BAB ABA | (G3 B2 | d3) def |\
gag fef | efe dcd | (c3 B3 | A3) |]\
gdc Bde | dBG EFG | ABc DEF | G3 |]\
def |\
gag G2g | aba A2c' | bag f2g | a3 d2g |\


